X:1
T:O salutaris hostia
T:O salutaris hostia
T:Ludwig van Beethoven
C:Ludwig van Beethoven
%%score [ 1 2 3 4 ]
L:1/8
M:4/4
K:Ab
V:1 treble nm="Soprano"
V:2 treble nm="Alto"
V:3 treble-8 nm="Tenor"
V:4 bass nm="Bass"
V:1
!p!!<(! c4 | d4 B4 | c4!<)! A4 |!>(! (G2 A2 d2) c2!>)! | B2 z2!<(! c4 | d4 =d4 | e4!<)! f4 | %7
w: O|sa- lu-|ta- ris|ho- * * sti-|a Quae|coe- li|pan- dis|
w: U-|ni tri-|no- que|Do- * * mi-|no Sit|sem- pi-|ter- na|
!>(! e6 =d2 | e4!>)! (d2 c2) | (G2 A2) (d2 c2) |!<(! (G2 A2) (d2 c2)!<)! |!>(! (B2 A2 G2) F2!>)! | %12
w: o- sti-|um, Bel- *|la _ pre- *|munt _ ho- *|sti- * * li-|
w: glo- ri-|a, Qui _|vi- * tam _|si- * ne _|ter- * * mi-|
 E4!f! c4 | (d4 B4) | c4!>(! A4 | (F2 B2) A2 G2 | A4!>)! z4 :| A8 | A8 |] %19
w: a: Da|ro- *|bur, fer|au- * xi- li-|um.|A-|men.|
w: no No-|bis _|do- net|in _ pa- tri-|a.|||
V:2
!p!!<(! E4 | F4 E4 | E4!<)! E4 |!>(! E6 E2!>)! | E2 z2!<(! E4 | F4 F4 | G4!<)! A4 | %7
w: O|sa- lu-|ta- ris|ho- sti-|a Quae|coe- li|pan- dis|
w: U-|ni tri-|no- que|Do- mi-|no Sit|sem- pi-|ter- na|
!>(! (G2 F2 G2) A2 | G4!>)! E4 | E4 E4 |!<(! E4 E4-!<)! |!>(! E4 E2 =D2!>)! | E4!f! E4 | (F4 E4) | %14
w: o- * * sti-|um, Bel-|la pre-|munt ho-|* sti- li-|a: Da|ro- *|
w: glo- * * ri-|a, Qui|vi- tam|si- ne|_ ter- mi-|no No-|bis _|
 E4!>(! E4 | D4 C2 B,2 | C4!>)! z4 :| D8 | C8 |] %19
w: bur, fer|au- xi- li-|um.|A-|men.|
w: do- net|ni pa- tri-|a.|||
V:3
!p!!<(! A4 | A4 G4 | A4!<)! c4 |!>(! (d2 c2 B2) A2!>)! | G2 z2!<(! A4 | A4 B4 | B4!<)! B4 | %7
w: O|sa- lu-|ta- ris|ho- * * sti-|a Quae|coe- li|pan- dis|
w: U-|ni tri-|no- que|Do- * * mi-|no Sit|sem- pi-|ter- na|
!>(! (B2 c2 B2) B2 | B4!>)! z4 | (d2 c2) (B2 c2) |!<(! (d2 c2) (B2 c2)!<)! | %11
w: o- * * sti-|um,|Bel- * la _|pre- * munt _|
w: glo- * * ri-|a,|Qui _ vi- *|tam _ si- *|
!>(! (d2 c2) B2 A2!>)! | G4!f! A4 | (A4 G4) | A4!>(! E4 | F4 E2 E2 | E4!>)! z4 :| (F4 _F4) | E8 |] %19
w: ho- * sti- li-|a: Da|ro- *|bur, fer|au- xi- li-|um.|A- *|men.|
w: ne _ ter- mi-|no No-|bis _|do- net|in pa- tri-|a.|||
V:4
!p!!<(! A,4 | D,4 E,4 | A,,4!<)! A,4 |!>(! (B,2 A,2 G,2) A,2!>)! | E,2 z2!<(! A,4 | D,4 B,4 | %6
w: O|sa- lu-|ta- ris|ho- * * sti-|a, Quae|coe- li|
w: U-|ni tri-|no- que|Do- * * mi-|no Sit|sem- pi-|
 E,4!<)! =D,4 |!>(! (E,2 A,2 B,2) B,,2 | E,4!>)! z4 | (B,2 A,2) (G,2 A,2) | %10
w: pan- dis|o- * * sti-|um;|Bel- * la _|
w: ter- na|glo- * * ri-|a,|Qui _ vi- *|
!<(! (B,2 A,2) (G,2 A,2)!<)! |!>(! (G,2 A,2) B,2 B,,2!>)! | E,4!f! A,4 | (D,4 E,4) | A,,4!>(! C,4 | %15
w: pre- * munt _|ho- * sti- li-|a: Da|ro- *|bur, fer|
w: tam _ si- *|ne _ ter- mi-|no No-|bis _|do- net|
 D,4 E,2 E,2 | A,,4!>)! z4 :| A,,8 | A,,8 |] %19
w: au- xi- li-|um.|A-|men.|
w: in pa- tri-|a.|||

